X:2543
T:Polska från Västermanland
T:Svenska Folkdansar H4 nr 21
O:Västermanland
B:Traditioner av Svenska Folkdansar Häfte 4, nr 21
B:Jämför [[http://www.smus.se/earkiv/fmk/browselarge.php?lang=sw&katalogid=Ma+17&bildnr=00007|SMUS - katalog Ma17 bild 7]] nr 3
R:Polska
Z:Nils L
U:w=wedge
U:t=tenuto
M:3/4
L:1/16
K:F
f2ef g2eg f2c2 | BAGF EGBd c4 | f2ef g2eg b2g2 | agfe f4 F4 ::
c4 cBAG F2_E2 | DBAB cBAB fBAB | d4 dc=BA G2F2 | Ec=Bc dcBc gcBc |
Ta2ga b2a2 g2f2 | (bgfe) f4 F4 :|
(:musicend:)
(:music:)
